Obsidian/actions/16s/kdenlive-zindex-down.svg

<svg height="16" width="16" xmlns="http://www.w3.org/2000/svg"><g fill="#bebebe"><path d="m7 5v7l-3.5-3.5-1.5 1.5 6 6 6-6-1.5-1.5-3.5 3.5v-7z"/><circle cx="8" cy="2" r="2"/></g></svg>

<svg xmlns="http://www.w3.org/2000/svg" width="16" height="16" version="1.1">
 <defs>
  <style id="current-color-scheme" type="text/css">
   .ColorScheme-Text { color:#bebebe; } .ColorScheme-Highlight { color:#4285f4; }
  </style>
 </defs>
 <path style="fill:currentColor" class="ColorScheme-Text" d="M 7,5 V 12 L 3.5,8.5 2,10 8,16 14,10 12.5,8.5 9,12 V 5 Z"/>
 <circle style="fill:currentColor" class="ColorScheme-Text" cx="8" cy="2" r="2"/>
</svg>
